public/assets/icons/file-csv.svg

<svg
      width="40"
      height="40"
      viewBox="0 0 40 40"
      fill="none"
      xmlns="http://www.w3.org/2000/svg"
    >
      <g clipPath="url(#clip0_5564_18588)">
        <path
          fillRule="evenodd"
          clipRule="evenodd"
          d="M13.1725 0H26.7177L38.6763 11.9586V34.9271C38.6763 37.7184 36.3947 40 33.6034 40H13.1725C10.3812 40 8.09961 37.7184 8.09961 34.9271V5.07289C8.09961 2.28148 10.3811 0 13.1725 0Z"
          fill="#00733B"
        />
        <path
          fillRule="evenodd"
          clipRule="evenodd"
          d="M26.7188 0L38.6773 11.9586H28.0081C27.2971 11.9586 26.7188 11.3802 26.7188 10.6692V0Z"
          fill="#005C2F"
        />
        <path
          fillRule="evenodd"
          clipRule="evenodd"
          d="M2.43758 17.0315H29.9874C30.6001 17.0315 31.1008 17.5321 31.1008 18.1448V28.2517C31.1008 28.8644 30.6002 29.3673 29.9874 29.3673H2.43758C1.82492 29.3673 1.32422 28.8644 1.32422 28.2517V18.1448C1.32422 17.5321 1.82484 17.0315 2.43758 17.0315Z"
          fill="#005C2F"
        />
        <path
          d="M8.07297 21.8186V24.5802C8.07297 25.3698 8.71547 26.0123 9.50523 26.0123C10.2949 26.0123 10.9374 25.3698 10.9374 24.5802C10.9374 24.2234 11.2266 23.9343 11.5832 23.9343C11.9399 23.9343 12.229 24.2234 12.229 24.5802C12.229 26.0821 11.0071 27.304 9.50516 27.304C8.0032 27.304 6.78125 26.082 6.78125 24.5802V21.8186C6.78125 20.3166 8.0032 19.0948 9.50516 19.0948C11.0071 19.0948 12.229 20.3167 12.229 21.8186C12.229 22.1753 11.9398 22.4644 11.5832 22.4644C11.2265 22.4644 10.9374 22.1753 10.9374 21.8186C10.9374 21.0289 10.2949 20.3864 9.50523 20.3864C8.71547 20.3864 8.07297 21.0289 8.07297 21.8186ZM15.7189 20.3864H16.7477C17.163 20.3864 17.5009 20.7243 17.5009 21.1397C17.5009 21.4964 17.7901 21.7855 18.1467 21.7855C18.5034 21.7855 18.7925 21.4963 18.7925 21.1397C18.7925 20.0121 17.8752 19.0948 16.7476 19.0948H15.7188C14.4085 19.0948 13.3424 20.1598 13.3424 21.4688C13.3424 22.6275 13.9377 23.1927 14.4371 23.4628C15.0708 23.8055 15.87 23.8452 16.416 23.8452C17.0141 23.8452 17.5008 24.3308 17.5008 24.9276C17.5008 25.5257 17.0141 26.0123 16.416 26.0123H15.3873C14.972 26.0123 14.634 25.6744 14.634 25.2591C14.634 24.9023 14.3448 24.6132 13.9882 24.6132C13.6315 24.6132 13.3424 24.9023 13.3424 25.2591C13.3424 26.3866 14.2598 27.304 15.3873 27.304H16.4161C17.7264 27.304 18.7925 26.2379 18.7925 24.9276C18.7925 23.6184 17.7264 22.5535 16.4161 22.5535C14.7682 22.5535 14.6341 22.0622 14.6341 21.4687C14.6341 20.872 15.1207 20.3864 15.7189 20.3864ZM25.1995 19.1277C24.861 19.0152 24.4954 19.1985 24.383 19.5369L22.6984 24.6092L21.0137 19.5369C20.9013 19.1985 20.5359 19.0153 20.1973 19.1277C19.8588 19.2401 19.6755 19.6056 19.7879 19.9441L22.0855 26.8618C22.1732 27.1258 22.4201 27.3041 22.6984 27.3041C22.9766 27.3041 23.2236 27.1259 23.3113 26.8618L25.6088 19.9441C25.7212 19.6056 25.538 19.2401 25.1995 19.1277Z"
          fill="white"
        />
      </g>
      <defs>
        <clipPath id="clip0_5564_18588">
          <rect width="40" height="40" fill="white" />
        </clipPath>
      </defs>
    </svg>

<svg xmlns="http://www.w3.org/2000/svg" width="40" height="40" fill="none"><path fill="#00733B" d="M13.173 0h13.545l11.958 11.959v22.968A5.086 5.086 0 0 1 33.603 40h-20.43A5.086 5.086 0 0 1 8.1 34.927V5.073A5.086 5.086 0 0 1 13.173 0"/><path fill="#005C2F" d="m26.719 0 11.958 11.959H28.008a1.29 1.29 0 0 1-1.29-1.29zM2.438 17.032h27.55c.612 0 1.113.5 1.113 1.113v10.107c0 .612-.5 1.115-1.114 1.115H2.437a1.12 1.12 0 0 1-1.113-1.115V18.145c0-.613.5-1.113 1.114-1.113"/><path fill="#fff" d="M8.073 21.819v2.761c0 .79.642 1.432 1.432 1.432s1.432-.642 1.432-1.432a.646.646 0 1 1 1.292 0 2.727 2.727 0 0 1-2.724 2.724 2.727 2.727 0 0 1-2.724-2.724V21.82a2.727 2.727 0 0 1 2.724-2.724 2.727 2.727 0 0 1 2.724 2.724.646.646 0 0 1-1.292 0c0-.79-.642-1.433-1.432-1.433s-1.432.643-1.432 1.433m7.646-1.433h1.029c.415 0 .753.338.753.754a.646.646 0 0 0 1.291 0 2.047 2.047 0 0 0-2.044-2.045h-1.03a2.38 2.38 0 0 0-2.376 2.374c0 1.159.596 1.724 1.095 1.994.634.342 1.433.382 1.979.382.598 0 1.085.486 1.085 1.083 0 .598-.487 1.084-1.085 1.084h-1.029a.754.754 0 0 1-.753-.753.646.646 0 1 0-1.292 0c0 1.128.918 2.045 2.045 2.045h1.03a2.38 2.38 0 0 0 2.375-2.376 2.38 2.38 0 0 0-2.376-2.375c-1.648 0-1.782-.49-1.782-1.084 0-.597.487-1.083 1.085-1.083m9.48-1.258a.646.646 0 0 0-.816.409l-1.685 5.072-1.684-5.072a.646.646 0 0 0-1.226.407l2.297 6.918a.646.646 0 0 0 1.226 0l2.298-6.918a.646.646 0 0 0-.41-.816"/></svg>
